symbols/web/emergency_recording/materialsymbolssharp/emergency_recording_wght100grad200fill1_48px.svg

<svg xmlns="http://www.w3.org/2000/svg" height="48" width="48"><path d="M20.05 32.85h1.75V25.5l6.75 3.9.8-1.55-6.7-3.85 6.7-3.9-.8-1.5-6.75 3.9v-7.4h-1.75v7.4l-6.7-3.9-.9 1.5 6.7 3.9-6.7 3.85.9 1.55 6.7-3.9Zm-13.3 5.3V9.85h28.3v12.9l6.2-6.2V31.4l-6.2-6.2v12.95Z"/></svg>

<svg xmlns="http://www.w3.org/2000/svg" height="48" width="48"><path d="M20.05 32.85H21.8V25.5L28.55 29.4L29.35 27.85L22.65 24L29.35 20.1L28.55 18.6L21.8 22.5V15.1H20.05V22.5L13.35 18.6L12.45 20.1L19.15 24L12.45 27.85L13.35 29.4L20.05 25.5ZM6.75 38.15V9.85H35.05V22.75L41.25 16.55V31.4L35.05 25.2V38.15Z"/></svg>
